web/themes/quartiers_solidaires/assets/icons/story.svg

<?xml version="1.0" encoding="UTF-8"?>
<svg width="50px" height="50px" viewBox="0 0 50 50" version="1.1" xmlns="http://www.w3.org/2000/svg" xmlns:xlink="http://www.w3.org/1999/xlink">
    <g id="Page-1" stroke="none" stroke-width="1" fill="currentColor" fill-rule="evenodd">
        <path d="M24.8335,13.666 C24.0045,13.666 23.3335,12.994 23.3335,12.166 C23.3335,11.338 24.0045,10.666 24.8335,10.666 L28.8335,10.666 C29.6625,10.666 30.3335,11.338 30.3335,12.166 C30.3335,12.994 29.6625,13.666 28.8335,13.666 L24.8335,13.666 Z" id="Fill-1"></path>
        <path d="M13.333,37.333 L17,37.333 L17,33.666 L13.333,33.666 L13.333,37.333 Z M11.833,40.333 L18.5,40.333 C19.329,40.333 20,39.661 20,38.833 L20,32.166 C20,31.338 19.329,30.666 18.5,30.666 L11.833,30.666 C11.005,30.666 10.333,31.338 10.333,32.166 L10.333,38.833 C10.333,39.661 11.005,40.333 11.833,40.333 L11.833,40.333 Z" id="Fill-3"></path>
        <path d="M13.333,24 L17,24 L17,13.666 L13.333,13.666 L13.333,24 Z M11.833,27 L18.5,27 C19.329,27 20,26.328 20,25.5 L20,12.166 C20,11.338 19.329,10.666 18.5,10.666 L11.833,10.666 C11.005,10.666 10.333,11.338 10.333,12.166 L10.333,25.5 C10.333,26.328 11.005,27 11.833,27 L11.833,27 Z" id="Fill-5"></path>
        <path d="M24.8335,27 L28.8335,27 C29.6625,27 30.3335,26.328 30.3335,25.5 C30.3335,24.672 29.6625,24 28.8335,24 L24.8335,24 C24.0045,24 23.3335,24.672 23.3335,25.5 C23.3335,26.328 24.0045,27 24.8335,27" id="Fill-6"></path>
        <path d="M24.8335,20.333 L32.5005,20.333 C33.3285,20.333 34.0005,19.661 34.0005,18.833 C34.0005,18.005 33.3285,17.333 32.5005,17.333 L24.8335,17.333 C24.0045,17.333 23.3335,18.005 23.3335,18.833 C23.3335,19.661 24.0045,20.333 24.8335,20.333" id="Fill-7"></path>
        <path d="M24.8335,33.666 L32.5005,33.666 C33.3285,33.666 34.0005,32.994 34.0005,32.166 C34.0005,31.338 33.3285,30.666 32.5005,30.666 L24.8335,30.666 C24.0045,30.666 23.3335,31.338 23.3335,32.166 C23.3335,32.994 24.0045,33.666 24.8335,33.666" id="Fill-8"></path>
        <path d="M24.8335,40.333 L32.5005,40.333 C33.3285,40.333 34.0005,39.661 34.0005,38.833 C34.0005,38.005 33.3285,37.333 32.5005,37.333 L24.8335,37.333 C24.0045,37.333 23.3335,38.005 23.3335,38.833 C23.3335,39.661 24.0045,40.333 24.8335,40.333" id="Fill-9"></path>
        <path d="M44,42.166 C44,43.178 43.178,44 42.167,44 C41.156,44 40.333,43.178 40.333,42.166 L40.333,10.333 L44,10.333 L44,42.166 Z M7,7 L37.333,7 L37.333,42.166 C37.333,42.27 37.344,42.371 37.364,42.469 C37.398,43.006 37.503,43.524 37.7,44 L8.833,44 C7.822,44 7,43.178 7,42.166 L7,7 Z M45.5,7.333 L40.333,7.333 L40.333,5.5 C40.333,4.672 39.662,4 38.833,4 L5.5,4 C4.671,4 4,4.672 4,5.5 L4,42.166 C4,42.27 4.011,42.371 4.031,42.469 C4.184,44.889 6.111,46.816 8.531,46.97 C8.629,46.989 8.729,47 8.833,47 L42.167,47 C42.271,47 42.371,46.989 42.469,46.97 C44.991,46.81 47,44.728 47,42.166 L47,8.833 C47,8.005 46.329,7.333 45.5,7.333 L45.5,7.333 Z" id="Fill-10"></path>
    </g>
</svg>

<svg viewBox="0 0 50 50" xmlns="http://www.w3.org/2000/svg">
  <g fill="currentColor" fill-rule="evenodd">
    <path d="M24.834 13.666a1.5 1.5 0 1 1 0-3h4a1.5 1.5 0 1 1 0 3h-4zM13.333 37.333H17v-3.667h-3.667v3.667zm-1.5 3H18.5a1.5 1.5 0 0 0 1.5-1.5v-6.667a1.5 1.5 0 0 0-1.5-1.5h-6.667a1.5 1.5 0 0 0-1.5 1.5v6.667a1.5 1.5 0 0 0 1.5 1.5zM13.333 24H17V13.666h-3.667V24zm-1.5 3H18.5a1.5 1.5 0 0 0 1.5-1.5V12.166a1.5 1.5 0 0 0-1.5-1.5h-6.667a1.5 1.5 0 0 0-1.5 1.5V25.5a1.5 1.5 0 0 0 1.5 1.5zM24.834 27h4a1.5 1.5 0 1 0 0-3h-4a1.5 1.5 0 1 0 0 3M24.834 20.333H32.5a1.5 1.5 0 0 0 0-3h-7.667a1.5 1.5 0 1 0 0 3M24.834 33.666H32.5a1.5 1.5 0 0 0 0-3h-7.667a1.5 1.5 0 1 0 0 3M24.834 40.333H32.5a1.5 1.5 0 0 0 0-3h-7.667a1.5 1.5 0 1 0 0 3"/>
    <path d="M44 42.166A1.835 1.835 0 0 1 42.167 44a1.836 1.836 0 0 1-1.834-1.834V10.333H44v31.833zM7 7h30.333v35.166c0 .104.011.205.031.303.034.537.139 1.055.336 1.531H8.833A1.835 1.835 0 0 1 7 42.166V7zm38.5.333h-5.167V5.5a1.5 1.5 0 0 0-1.5-1.5H5.5A1.5 1.5 0 0 0 4 5.5v36.666c0 .104.011.205.031.303a4.814 4.814 0 0 0 4.5 4.501c.098.019.198.03.302.03h33.334c.104 0 .204-.011.302-.03C44.991 46.81 47 44.728 47 42.166V8.833a1.5 1.5 0 0 0-1.5-1.5z"/>
  </g>
</svg>
